X:1
T:Title
%%score { ( 1 5 ) | ( 2 3 4 ) } 6
L:1/8
Q:1/4=108
M:4/4
K:D
V:1 bass nm="Grand Piano, Piano"
V:5 bass 
V:2 bass 
V:3 bass 
V:4 bass 
V:6 treble nm="Clarinet, Clarinet"
V:1
 A,8 | E4 B,4 | [B,D]8 | C8 | [F,A,]8 | [CE]4 B,4 | [B,D]6 z2 | z8 | [B,D]2 z2 A4 | A4 z2 C2 | %10
 [B,D]2 z2 [EA]4 | A4 z2 C2 | [B,D]2 z2 C4 | E4 B,4 | [B,D]4 D2 .C2 | A,8 |] %16
V:2
 [D,F,]8 | [F,C]4 B,,2 F,2 | E,3 F, G,4 | A,,3 E, A,2 A,,2 | D,8 | F,4 B,,2 F,2 | z4 z2 D2- | %7
 D4 C4 | z4 E4 | F,,6 D,2 | G,,3 G,, G,,4 | F,,6 D,2 | G,,4 A,,4 | [F,C]4 B,,2 F,2 | E,4 A,,2 A,2 | %15
 [D,F,]8 |] %16
V:3
 x8 | x8 | x8 | x8 | x8 | x8 | E,3 F, z4 | z2 z E z2 E,2 | z4 z2 z G,, | x8 | x8 | x8 | x8 | x8 | %14
 x8 | x8 |] %16
V:4
 x8 | x8 | x8 | x8 | x8 | x8 | z4 G,4 | A,,6 z2 | G,,8 | x8 | x8 | x8 | x8 | x8 | x8 | x8 |] %16
V:5
 x8 | x8 | x8 | x8 | x8 | x8 | x8 | x8 | x8 | D6 z2 | x8 | D6 z2 | x8 | x8 | x8 | x8 |] %16
V:6
 z2 D2 D2 FG | AAAB D3 D | G2 F2 E2 D2 | E8 | z2 D2 D2 FG | A3 B D3 D | G2 F2 E2 D2 | A8 | %8
 z2 B2 c2 d2 | d3 A A4 | z2 B2 c2 d2 | d3 A A4 | z2 B2 A2 FG | AAAB D3 D | G2 F2 E3 D | D8 |] %16

